X: 376
T: A Tailor I Am
R: jig
M: 6/8
K: Gmajor
|:BGB dBA|GBA GAB|dcB c2d|ecA Adc|
BGB dBA|GBA GAB|dcB Adc|BGF Gdc:|
|:dBd g2a|bga g2e|dcB c2d|ecA Aff|
dBd g2a|bga g2e|dcB Adc|BGF G3:|

